X:5
T:GB/6b/5 The Bonny Bunch of Roses
%%VWML:GB-6b-5-0
F:http://www.vwml.org/record/GB/6b/5
C:Transcribed by Simon Furey and Lewis Jones
L:1/8
Q:1/4=80
M:4/4
I:linebreak $
K:Cdor
"^DORIAN" G G | c3 d e2 d2 | (c3 B) G2 z G |$ c3 d e2 d2 | c2 (BA) G2 G2 | c3 B G2 (FE) |$
w: By the|dan- gers of the|O- * cean, One|morn- ing in the|month of * June, The|feath- ered warb- ling *|
(F2 G2) C2 (DE) | F2 (GA) (BA) (GF) | G2 C2 C2 |]
w: song * sters Their *|charm- ing * notes * so *|sweet did tune.|

